X:60
T:Walls of Madrid,The. JBs.060
S:Jas.Blackshaw MS, 1837, N.Shropshire
A:North Shropshire
Z:T. Weatherall 2006
M:3/8
L:1/16
Q:3/8=50
R:Waltz
K:C
â€œ*â€G2|c2cGce|c2cGce|c2cGce|d4dc|B2BGBd|B2BGBd|â€*â€gagfed|c4:|!
|:gf|e2efge|f2fgaf|d2defd|e4ge|c2cdec|A2fedc|B2dBGB|c4:|

